svg/arrows_long_up.svg

<svg xmlns="http://www.w3.org/2000/svg" viewBox="0 0 32 32" enable-background="new 0 0 32 32"><path d="M 16 4.09375 L 15.28125 4.8125 L 9.28125 10.8125 L 10.71875 12.21875 L 15 7.9375 L 15 28 L 17 28 L 17 7.9375 L 21.28125 12.21875 L 22.71875 10.8125 L 16.71875 4.8125 L 16 4.09375 z" color="#000" overflow="visible" enable-background="accumulate"/></svg>

<svg xmlns="http://www.w3.org/2000/svg" viewBox="0 0 32 32"><path d="M16 4.094l-.72.718-6 6 1.44 1.407L15 7.936V28h2V7.937l4.28 4.282 1.44-1.408-6-6-.72-.718z"/></svg>
